wp-content/themes/KOOEN/assets/img/common/send_anchor.svg

<svg width="45" height="20" viewBox="0 0 45 20" fill="none" xmlns="http://www.w3.org/2000/svg">
<path d="M9.312 14.656C9.312 15.408 9.2 16.08 8.976 16.672C8.752 17.248 8.44 17.744 8.04 18.16C7.656 18.56 7.2 18.864 6.672 19.072C6.144 19.296 5.584 19.408 4.992 19.408C4.128 19.408 3.328 19.224 2.592 18.856C1.872 18.488 1.288 18 0.84 17.392L1.872 16.216C2.24 16.744 2.704 17.152 3.264 17.44C3.824 17.728 4.392 17.872 4.968 17.872C5.736 17.872 6.376 17.6 6.888 17.056C7.416 16.512 7.68 15.736 7.68 14.728C7.68 14.248 7.6 13.824 7.44 13.456C7.28 13.088 7.064 12.76 6.792 12.472C6.52 12.184 6.208 11.928 5.856 11.704C5.52 11.48 5.16 11.272 4.776 11.08C4.312 10.856 3.872 10.608 3.456 10.336C3.04 10.048 2.672 9.72 2.352 9.352C2.048 8.984 1.8 8.552 1.608 8.056C1.416 7.544 1.32 6.952 1.32 6.28C1.32 5.496 1.44 4.816 1.68 4.24C1.92 3.648 2.24 3.16 2.64 2.776C3.056 2.376 3.52 2.08 4.032 1.888C4.544 1.696 5.08 1.6 5.64 1.6C6.408 1.6 7.096 1.736 7.704 2.008C8.328 2.264 8.848 2.672 9.264 3.232L8.232 4.408C7.912 3.944 7.536 3.616 7.104 3.424C6.672 3.216 6.2 3.112 5.688 3.112C5.352 3.112 5.016 3.176 4.68 3.304C4.36 3.416 4.072 3.6 3.816 3.856C3.56 4.112 3.352 4.44 3.192 4.84C3.032 5.24 2.952 5.712 2.952 6.256C2.952 6.736 3.024 7.152 3.168 7.504C3.312 7.856 3.504 8.168 3.744 8.44C4 8.712 4.288 8.952 4.608 9.16C4.944 9.368 5.288 9.56 5.64 9.736C6.088 9.96 6.528 10.216 6.96 10.504C7.408 10.792 7.808 11.128 8.16 11.512C8.512 11.896 8.792 12.344 9 12.856C9.208 13.368 9.312 13.968 9.312 14.656ZM14.3422 13.384C14.3422 14.04 14.3982 14.648 14.5102 15.208C14.6222 15.752 14.7822 16.232 14.9902 16.648C15.2142 17.048 15.4862 17.368 15.8063 17.608C16.1423 17.832 16.5343 17.944 16.9822 17.944C17.5583 17.944 18.0223 17.768 18.3742 17.416C18.7263 17.064 18.9983 16.64 19.1903 16.144L20.3903 16.84C20.1023 17.56 19.6703 18.168 19.0942 18.664C18.5343 19.144 17.8143 19.384 16.9343 19.384C15.6063 19.384 14.5743 18.824 13.8382 17.704C13.1022 16.584 12.7342 15.04 12.7342 13.072C12.7342 12.144 12.8302 11.288 13.0222 10.504C13.2142 9.72 13.4862 9.048 13.8382 8.488C14.2062 7.928 14.6462 7.496 15.1582 7.192C15.6862 6.872 16.2703 6.712 16.9103 6.712C17.6143 6.712 18.2063 6.864 18.6863 7.168C19.1823 7.472 19.5823 7.888 19.8863 8.416C20.1903 8.944 20.4063 9.56 20.5343 10.264C20.6783 10.968 20.7503 11.72 20.7503 12.52V13.384H14.3422ZM19.1423 12.064C19.1423 10.864 18.9583 9.904 18.5903 9.184C18.2222 8.448 17.6463 8.08 16.8623 8.08C16.3983 8.08 16.0063 8.224 15.6862 8.512C15.3822 8.784 15.1263 9.128 14.9183 9.544C14.7262 9.944 14.5822 10.376 14.4862 10.84C14.4062 11.304 14.3662 11.712 14.3662 12.064H19.1423ZM30.8987 19V11.32C30.8987 10.952 30.8747 10.584 30.8267 10.216C30.7947 9.832 30.7067 9.488 30.5627 9.184C30.4347 8.864 30.2427 8.608 29.9867 8.416C29.7467 8.208 29.4267 8.104 29.0267 8.104C28.6267 8.104 28.2667 8.216 27.9467 8.44C27.6427 8.648 27.3787 8.944 27.1547 9.328C26.9467 9.696 26.7787 10.128 26.6507 10.624C26.5387 11.104 26.4827 11.608 26.4827 12.136V19H24.8987V10.096C24.8987 9.84 24.8907 9.568 24.8747 9.28C24.8747 8.976 24.8667 8.688 24.8507 8.416C24.8507 8.128 24.8427 7.872 24.8267 7.648C24.8267 7.408 24.8187 7.224 24.8027 7.096H26.3387C26.3707 7.4 26.3947 7.768 26.4107 8.2C26.4267 8.632 26.4347 9.04 26.4347 9.424H26.4827C26.7067 8.624 27.0747 7.976 27.5867 7.48C28.0987 6.968 28.7387 6.712 29.5067 6.712C30.1467 6.712 30.6587 6.848 31.0427 7.12C31.4427 7.392 31.7467 7.752 31.9547 8.2C32.1627 8.632 32.2987 9.128 32.3627 9.688C32.4427 10.232 32.4827 10.776 32.4827 11.32V19H30.8987ZM43.2281 19V16.864H43.1801C42.9881 17.584 42.6681 18.184 42.2201 18.664C41.7721 19.144 41.1401 19.384 40.3241 19.384C39.7161 19.384 39.1801 19.224 38.7161 18.904C38.2521 18.584 37.8601 18.144 37.5401 17.584C37.2201 17.008 36.9721 16.336 36.7961 15.568C36.6361 14.784 36.5561 13.928 36.5561 13C36.5561 12.072 36.6361 11.224 36.7961 10.456C36.9561 9.688 37.1881 9.032 37.4921 8.488C37.8121 7.928 38.2041 7.496 38.6681 7.192C39.1481 6.872 39.6921 6.712 40.3001 6.712C41.0201 6.712 41.6281 6.936 42.1241 7.384C42.6201 7.816 42.9561 8.392 43.1321 9.112H43.1801V0.855999H44.7641V19H43.2281ZM43.2281 13.048C43.2281 12.344 43.1721 11.688 43.0601 11.08C42.9641 10.472 42.8041 9.952 42.5801 9.52C42.3721 9.072 42.1081 8.72 41.7881 8.464C41.4681 8.208 41.1001 8.08 40.6841 8.08C40.2521 8.08 39.8761 8.208 39.5561 8.464C39.2521 8.72 38.9961 9.072 38.7881 9.52C38.5801 9.952 38.4281 10.472 38.3321 11.08C38.2361 11.688 38.1881 12.344 38.1881 13.048C38.1881 13.736 38.2361 14.384 38.3321 14.992C38.4281 15.584 38.5801 16.104 38.7881 16.552C38.9961 17 39.2521 17.352 39.5561 17.608C39.8761 17.864 40.2521 17.992 40.6841 17.992C41.1161 17.992 41.4841 17.864 41.7881 17.608C42.1081 17.352 42.3721 17 42.5801 16.552C42.8041 16.104 42.9641 15.584 43.0601 14.992C43.1721 14.384 43.2281 13.736 43.2281 13.048Z" fill="url(#paint0_linear)"/>
<defs>
<linearGradient id="paint0_linear" x1="0.00166057" y1="11.4908" x2="47.0054" y2="11.4908" gradientUnits="userSpaceOnUse">
<stop stop-color="#00A99D"/>
<stop offset="9.65257e-08" stop-color="#00A99D"/>
<stop offset="0.9996" stop-color="#00D47F"/>
<stop offset="1" stop-color="#00D47F"/>
</linearGradient>
</defs>
</svg>

<svg fill="none" height="20" viewBox="0 0 45 20" width="45" xmlns="http://www.w3.org/2000/svg" xmlns:xlink="http://www.w3.org/1999/xlink"><linearGradient id="a" gradientUnits="userSpaceOnUse" x1=".001661" x2="47.0054" y1="11.4908" y2="11.4908"><stop offset="0" stop-color="#00a99d"/><stop offset=".00000009653" stop-color="#00a99d"/><stop offset=".9996" stop-color="#00d47f"/><stop offset="1" stop-color="#00d47f"/></linearGradient><path d="m9.312 14.656c0 .752-.112 1.424-.336 2.016-.224.576-.536 1.072-.936 1.488-.384.4-.84.704-1.368.912-.528.224-1.088.336-1.68.336-.864 0-1.664-.184-2.4-.552-.72-.368-1.304-.856-1.752-1.464l1.032-1.176c.368.528.832.936 1.392 1.224s1.128.432 1.704.432c.768 0 1.408-.272 1.92-.816.528-.544.792-1.32.792-2.328 0-.48-.08-.904-.24-1.272s-.376-.696-.648-.984-.584-.544-.936-.768c-.336-.224-.696-.432-1.08-.624-.464-.224-.904-.472-1.32-.744-.416-.288-.784-.616-1.104-.984-.304-.368-.552-.8-.744-1.296-.192-.512-.288-1.104-.288-1.776 0-.784.12-1.464.36-2.04.24-.592.56-1.08.96-1.464.416-.4.88-.696 1.392-.888s1.048-.288 1.608-.288c.768 0 1.456.136 2.064.408.624.256 1.144.664 1.56 1.224l-1.032 1.176c-.32-.464-.696-.792-1.128-.984-.432-.208-.904-.312-1.416-.312-.336 0-.672.064-1.008.192-.32.112-.608.296-.864.552s-.464.584-.624.984-.24.872-.24 1.416c0 .48.072.896.216 1.248s.336.664.576.936c.256.272.544.512.864.72.336.208.68.4 1.032.576.448.224.888.48 1.32.768.448.288.848.624 1.2 1.008s.632.832.84 1.344.312 1.112.312 1.8zm5.0302-1.272c0 .656.056 1.264.168 1.824.112.544.272 1.024.48 1.44.224.4.496.72.8161.96.336.224.728.336 1.1759.336.5761 0 1.0401-.176 1.392-.528.3521-.352.6241-.776.8161-1.272l1.2.696c-.288.72-.72 1.328-1.2961 1.824-.5599.48-1.2799.72-2.1599.72-1.328 0-2.36-.56-3.0961-1.68-.736-1.12-1.104-2.664-1.104-4.632 0-.928.096-1.784.288-2.568s.464-1.456.816-2.016c.368-.56.808-.992 1.32-1.296.528-.32 1.1121-.48 1.7521-.48.704 0 1.296.152 1.776.456.496.304.896.72 1.2 1.248s.52 1.144.648 1.848c.144.704.216 1.456.216 2.256v.864zm4.8001-1.32c0-1.2-.184-2.16-.552-2.88-.3681-.736-.944-1.104-1.728-1.104-.464 0-.856.144-1.1761.432-.304.272-.5599.616-.7679 1.032-.1921.4-.3361.832-.4321 1.296-.08.464-.12.872-.12 1.224zm11.7564 6.936v-7.68c0-.368-.024-.736-.072-1.104-.032-.384-.12-.728-.264-1.032-.128-.32-.32-.576-.576-.768-.24-.208-.56-.312-.96-.312s-.76.112-1.08.336c-.304.208-.568.504-.792.888-.208.368-.376.8-.504 1.296-.112.48-.168.984-.168 1.512v6.864h-1.584v-8.904c0-.256-.008-.528-.024-.816 0-.304-.008-.592-.024-.864 0-.288-.008-.544-.024-.768 0-.24-.008-.424-.024-.552h1.536c.032.304.056.672.072 1.104s.024.84.024 1.224h.048c.224-.8.592-1.448 1.104-1.944.512-.512 1.152-.768 1.92-.768.64 0 1.152.136 1.536.408.4.272.704.632.912 1.08.208.432.344.928.408 1.488.08.544.12 1.088.12 1.632v7.68zm12.3294 0v-2.136h-.048c-.192.72-.512 1.32-.96 1.8s-1.08.72-1.896.72c-.608 0-1.144-.16-1.608-.48s-.856-.76-1.176-1.32c-.32-.576-.568-1.248-.744-2.016-.16-.784-.24-1.64-.24-2.568s.08-1.776.24-2.544.392-1.424.696-1.968c.32-.56.712-.992 1.176-1.296.48-.32 1.024-.48 1.632-.48.72 0 1.328.224 1.824.672.496.432.832 1.008 1.008 1.728h.048v-8.256001h1.584v18.144001zm0-5.952c0-.704-.056-1.36-.168-1.968-.096-.608-.256-1.128-.48-1.56-.208-.448-.472-.8-.792-1.056s-.688-.384-1.104-.384c-.432 0-.808.128-1.128.384-.304.256-.56.608-.768 1.056-.208.432-.36.952-.456 1.56s-.144 1.264-.144 1.968c0 .688.048 1.336.144 1.944.096.592.248 1.112.456 1.56s.464.8.768 1.056c.32.256.696.384 1.128.384s.8-.128 1.104-.384c.32-.256.584-.608.792-1.056.224-.448.384-.968.48-1.56.112-.608.168-1.256.168-1.944z" fill="url(#a)"/></svg>
